X:3
T:Carolan's Concerto
Z: id:dc-ocarolan-1
M:C|
L:1/8
K:D Major
ABc|d2dd d2cB|ABGA F2A2|E2A2 D2A2|Bcde dcBA|!
d2a2 fgaf|efge fgaf|gabg fdfa|gfed dcBA|!
BdBd gBgB|AdAd fAfA|GBGB efed|c2Bc A3G|!
FGAF EFGE|FGAF GABG|A2d2 fedc|d4-d:|!
ABc|d2b2 agfe|d2a2 c2a2|B2gB ABcd|ecBA d2df|!
edcB caaa|Bggg Afff|edcB caaa|Bggg bgbg|!
afaf edcB|cABG AFGE|DAFA DAFA|GEBE GEBE|!
FAdc BAGF|EFGA Bcde|A2d2 fedc|d4-d:|!

